!!!COM: Palestrina, Giovanni Perluigi da
!!!OPR: Missa Laudate Dominum
!!!OMD: Credo
!!!OTL: Et in Spiritum
**kern	**kern	**kern	**kern
*Ibass	*Itenor	*Icant	*Icant
!Bassus	!Tenor	!Cantus 2	!Cantus 1
*clefF4	*clefGv2	*clefG2	*clefG2
*k[b-]	*k[b-]	*k[b-]	*k[b-]
*F:ion	*F:ion	*F:ion	*F:ion
*M4/2	*M4/2	*M4/2	*M4/2
=136	=136	=136	=136
0r	0r	0f	0r
=137	=137	=137	=137
0r	0r	1g	1r
.	.	2.a	[1f
.	.	4a	.
=138	=138	=138	=138
0r	0r	2a	1f]
.	.	1f	.
.	.	.	1g
.	.	2e	.
=139	=139	=139	=139
0r	0F	1.f	2.a
.	.	.	4a
.	.	.	2a
.	.	2e	[2cc
=140	=140	=140	=140
1r	1G	1d	2cc]
.	.	.	2b
[1F	2.A	2r	[1cc
.	.	[2f	.
.	4A	.	.
=141	=141	=141	=141
1F]	2A	2f]	2cc]
.	1c	2f	2a
1G	.	2.d	2.g
.	2B	.	.
.	.	4d	4f
=142	=142	=142	=142
2.A	1.c	2c	1e
.	.	1e	.
4A	.	.	.
2A	.	.	1r
[2F	2A	2f	.
=143	=143	=143	=143
2F]	1G	2g	2r
2E	.	2g	1c
2F	2r	2a	.
2D	2F	[2a	[2f
=144	=144	=144	=144
1C	2c	2a]	2f]
.	2c	4g	4e
.	.	4f	4d
1r	2c	2g	2e
.	4F	[2f	[2a
.	4G	.	.
=145	=145	=145	=145
0r	4A	2f]	2a]
.	4B-	.	.
.	2.c	4e	4g
.	.	4d	4f
.	.	2e	2g
.	4B-	.	.
.	2A	2c	2a
=146	=146	=146	=146
1r	1G	1d	4b
.	.	.	2cc
.	.	.	4b
1C	2r	1e	2cc
.	2c	.	2g
=147	=147	=147	=147
2F	2c	2r	2a
2F	2c	2a	1f
2F	2A	2cc	.
4BB-	[2d	2b-	2f
4C	.	.	.
=148	=148	=148	=148
4D	2d]	4a	2.f
4E	.	4g	.
2.F	4c	4f	.
.	4B-	4e	4g
.	[1A	4d	2.a
4E	.	4c	.
2D	.	2f	.
.	.	.	4b-
=149	=149	=149	=149
0C	2A]	2e	0cc
.	4G	2.f	.
.	4F	.	.
.	1G	.	.
.	.	8e	.
.	.	8d	.
.	.	2e	.
=150	=150	=150	=150
0F	2F	[0f	[0a
.	1c	.	.
.	2A	.	.
=151	=151	=151	=151
2r	1d	0f]	0a]
1F	.	.	.
.	2c	.	.
2D	[2d	.	.
=152	=152	=152	=152
1G	2d]	1r	0r
.	4c	.	.
.	4B-	.	.
2F	2.A	2r	.
2F	.	[2cc	.
.	4B-	.	.
=153	=153	=153	=153
2E	2c	2cc]	0r
2F	2c	2a	.
4BB-	1B-	1dd	.
4C	.	.	.
4D	.	.	.
4E	.	.	.
=154	=154	=154	=154
2.F	2.A	1cc	2r
.	.	.	1cc
8E	8G	.	.
8D	8F	.	.
2C	2E	1r	.
2D	[2A	.	2a
=155	=155	=155	=155
1BB-	2A]	1r	1dd
.	2G	.	.
1AA	1A	2r	2cc
.	.	2a	2cc
=156	=156	=156	=156
0r	0r	2g	2b-
.	.	2a	2cc
.	.	2cc	4f
.	.	.	4g
.	.	[2f	4a
.	.	.	4b-
=157	=157	=157	=157
0r	2r	2f]	2.cc
.	1c	4e	.
.	.	4d	8b-
.	.	.	8a
.	.	1e	2g
.	2A	.	[2a
=158	=158	=158	=158
0r	1d	1f	4a]
.	.	.	4g
.	.	.	2.f
.	2c	[1g	.
.	.	.	4e
.	2c	.	4e
.	.	.	8d
.	.	.	8c
=159	=159	=159	=159
1r	2B	1g]	2d
.	2c	.	2e
2r	4F	[1a	2f
.	4G	.	.
[2F	4A	.	[2f
.	4B-	.	.
=160	=160	=160	=160
2F]	2c	2a]	2f]
2D	1d	2a	2f
1G	.	1b-	2d
.	4c	.	2e
.	4B-	.	.
=161	=161	=161	=161
2F	0c	2a	1f
2F	.	2a	.
2E	.	2g	2g
2F	.	2a	2f
=162	=162	=162	=162
4BB-	2d	2b-	1f
4C	.	.	.
4D	2d	4a	.
4E	.	4g	.
2F	2c	2a	2r
[2BB-	[2B-	[2dd	[2f
=163	=163	=163	=163
2BB-]	2B-]	2dd]	2f]
2BB-	2B-	2dd	2f
2BB-	2B-	2dd	2f
2BB-	2B-	2dd	2f
=164	=164	=164	=164
0BB-	0d	0b-	0f
=165	=165	=165	=165
1F	2c	2a	2f
.	2F	2cc	2a
1r	2F	2cc	2a
.	2F	2cc	2a
=166	=166	=166	=166
0r	1F	1a	2cc
.	.	.	2.f
.	1c	2g	.
.	.	.	8e
.	.	.	8d
.	.	[2a	2e
=167	=167	=167	=167
0r	2.d	4a]	2.f
.	.	4g	.
.	.	4f	.
.	4c	4e	8g
.	.	.	8a
.	4B-	2d	1b-
.	4A	.	.
.	2G	[2g	.
=168	=168	=168	=168
1r	1d	4g]	2a
.	.	4f	.
.	.	1f	4g
.	.	.	4f
2r	1c	.	1g
2C	.	2e	.
=169	=169	=169	=169
2D	2B-	1f	1r
1F	1A	.	.
.	.	1r	1cc
2E	2G	.	.
=170	=170	=170	=170
4D	4F	0r	2b-
4E	4G	.	.
4F	4A	.	1a
4G	4B-	.	.
2A	1c	.	.
2E	.	.	2g
=171	=171	=171	=171
4F	2A	0r	1f
4G	.	.	.
4A	2F	.	.
4F	.	.	.
2G	4B-	.	1r
.	4A	.	.
[2F	4A	.	.
.	8G	.	.
.	8F	.	.
=172	=172	=172	=172
2F]	1G	1r	2r
2E	.	.	2.cc
1F	2A	2r	.
.	.	.	4b-
.	2F	2cc	2a
=173	=173	=173	=173
0r	2G	2b-	2g
.	2A	1a	1f
.	1c	.	.
.	.	2g	2e
=174	=174	=174	=174
0r	1F	4f	2a
.	.	4g	.
.	.	4a	4f
.	.	4b-	4g
.	4F	1cc	4a
.	4G	.	4b-
.	4A	.	[2cc
.	4B-	.	.
=175	=175	=175	=175
0r	2c	2a	4cc]
.	.	.	4b-
.	2d	2f	2a
.	1B-	2b-	2g
.	.	2a	[2f
=176	=176	=176	=176
2r	2c	1g	2f]
2C	2c	.	2e
2D	2B-	1r	1f
[2F	[2A	.	.
=177	=177	=177	=177
2F]	2A]	1c	2r
2E	2G	.	2cc
1D	4F	2d	2b-
.	4G	.	.
.	4A	[2f	[2a
.	4B-	.	.
=178	=178	=178	=178
1C	1c	2f]	2a]
.	.	2e	2g
2.D	[1A	4d	4f
.	.	4e	4g
.	.	4f	4a
8C	.	4g	4b-
8BB-	.	.	.
=179	=179	=179	=179
4AA	2A]	2a	1cc
4BB-	.	.	.
2C	2G	2e	.
1D	2.F	4f	2a
.	.	4g	.
.	.	4a	2f
.	4D	4f	.
=180	=180	=180	=180
1BB-	1d	2g	1b-
.	.	1f	.
1C	1c	.	4a
.	.	.	8g
.	.	.	8f
.	.	2e	2g
=181	=181	=181	=181
0FF	[0c	2.a	2.f
.	.	4g	4g
.	.	1f	1a
=182	=182	=182	=182
0C	0c]	0e	0g
*-	*-	*-	*-
!!!CDT: 1525/^1526/-1594/2/2
!!!OCY: Italia
!!!AGN: Mass (Parody)
!!!AST: renaissance, vocal
!!!ASW: Motet 1572 (Palestrina)
!!!PWK: Masses, Book 8vce
!!!RNB: Cadence finals: C
!!!YOR: Le Opere Complete, v. 30, p. 1
!!!YOO: Rome, Italy: Fratelli Scalera
!!!END: 1992//
!!!EED: John Miller
!!!YEC: Copyright 2000, John Miller
!!!YEN: United States of America
!!!YEM: Rights to all derivative electronic formats reserved.
!!!YEM: Refer to licensing agreement for further details.
!!!YEM: This file must be accompanied by the licensing agreement.
!!!YEM: A copy of the licensing agreement may be found at http://www.music-cog.ohio-state.edu/HumdrumDatabases/Palestrina/license.txt
!!!EMD: converted to Humdrum by Bret Aarden
